X:17493
T:Tinker's Daughter, The
T:Broderick's
C:Vincent Broderick
R:reel
H:The 2nd ending for the 2nd part was added later.
H:The second part is very much like the second part of "Broderick's", #85
Z:id:hn-reel-85
M:C|
K:D
A2FA DAFA|f2df efdB|A2FA DAFA|B2dB BAFB|
A2FA DAFA|~f3d efde|fa~a2 bfaf|1 e2de fedB:|2 e2de fdde||
|:fa~a2 bfaf|defd e2de|f2df efdB|Adfd edBd|
[1 fa~a2 bfaf|defd e2de|f2df efdB|AFEF D3e:|
[2 A2FA DAFA|~f3d efde|fa~a2 bfaf|e2de fedB||
